X: 9575
T: David Of The White Rock
R: waltz
M: 3/4
K: Eminor
EB AG FE|E2^D2 E2|B,^D FA GF|E6|E2 e2 d2|c2 BA B2|G2 BA GF|G6|
G2 BG dG|A2 GF E^D|EF GE AG|G2 F4|EG B^d ec|BA GF G2|F>G E2 ^D2|E5||

